!!!COM: Anon.
!!!OTL: Consequens Antecedent
!!!SCA: Folio 327-327'
!!!YOR: from 'Thirty-Five Conductus for Two and Three Voices', pp.98-100
!!!YOR: edited by Janet Knapp, Collegium Musicum No. 6, Yale University (1965)
!!!YOR: from the School of Notre Dame; circa 1170-1240
!!!YOO: Yale University
!!!YOY: 1965
**kern	**kern
*M6/8	*M6/8
=1	=1
4G	4g
8A	8f
4B	8e
.	8d
8A	8e
=2	=2
4.c	4.c
4.B	4.d
=3	=3
4A	4e
8G	8f
4G	8g
.	8f
8F	8e
=4	=4
4.G	4d
.	8r
4A	8e
.	8d
8r	8c
=5	=5
4B	4B
8c	8A
4d	4G
8d	8A
=6	=6
4c	4c
8B	8r
4A	4e
8r	8f
=7	=7
4B	8e
.	8d
8c	8c
8B	4d
8A	.
8G	8r
=8	=8
4A	4e
8G	8d
4F	4f
8r	8f
=9	=9
4.A	8e
.	8d
.	8c
4G	4d
8r	8r
=10	=10
4A	4e
8B	8r
4c	4g
8c	8f
=11	=11
4B	8e
.	8d
8A	8c
4G	4d
8r	8d
=12	=12
4A	4c
8G	8r
4F	4f
8G	8f
=13	=13
4.A	16e
.	16d
.	8d
.	8c
4G	4d
8r	8r
=14	=14
4.A	8e
.	8e
.	8d
4.c	8c
.	8c
.	8B-
=15	=15
4.d	4A
.	8G
8e	8A
8e	8A
8d	8B
=16	=16
8c	4.c
8B	.
8A	.
8B	8d
8A	8d
8G	8e
=17	=17
[2.F	16f
.	16e
.	16d
.	16c
.	16B
.	16A
.	4G
.	8G
=18	=18
4.F]	4.A
4G;	4G;
8r	8r
=19	=19
4.B	4B
.	8c
4.A	4d
.	8d
=20	=20
4B	4d
8A	8e
4G	4d
8r	8B
=21	=21
4A	4d
8G	8d
4c	4c
8d	8B
=22	=22
4e	4.A
8c	.
4d	4G
8r	8r
=23	=23
4e	4.A
8d	.
8c	4.c
8B	.
8A	.
=24	=24
4G	4d
8A	8e
4G	4g
8F	8f
=25	=25
4.A	4.e
4.r	4.r
=26	=26
4.c	4f
.	8e
8B	4d
8A	.
8B	8d
=27	=27
4.d	4G
.	8A
4.B	8B
.	8B
.	8A
=28	=28
4c	4.c
8c	.
4B	4.d
8B	.
=29	=29
4A	4e
8A	8c
4G	4d
8r	8r
=30	=30
8B	8e
8B	8e
8A	8d
4c	8c
.	8B
8r	8A
=31	=31
4d	4B
8e	8c
4d	4d
8r	8r
=32	=32
4.e	4.e
4.f	4.d
=33	=33
4.g	4.c
8f	4.d
8e	.
8d	.
=34	=34
4.c	4.e
4.B	4.d
=35	=35
4.A	4c
.	8d
4A	4e
8r	8r
=36	=36
4c	8f
.	8e
8B	8f
4d	4d
8d	8A
=37	=37
8c	8c
8B	8B
8A	8c
4G	4d
8r	8r
=38	=38
4B	8e
.	8d
8A	8c
4G	4d
8A	8c
=39	=39
8c	8f
8B	8e
8c	8f
4d	4d
8r	8r
=40	=40
4e	4e
8d	8f
4f	4d
8g	8G
=41	=41
8f	4A
8e	.
8d	8B
4c	4c
8r	8r
=42	=42
4B	4d
8A	8e
4d	8f
.	8e
8d	8d
=43	=43
4c	4c
8B	8d
4A	4e
8r	8r
=44	=44
4G	4g
8A	8g
4B	4f
8G	8f
=45	=45
4.A	8e
.	8e
.	8d
4.r	4c
.	8r
=46	=46
4G	4d
8A	8d
4.B	8d
.	8c
.	8d
=47	=47
4.A	4.e
4.r	4e
.	8r
=48	=48
4B	4f
8c	8e
4d	4d
8d	8B
=49	=49
4d	4G
8e	8B
4d	4d
8B	8r
=50	=50
4d	4B
8d	8A
4c	4c
8B	8d
=51	=51
4A	8e
.	8d
8G	8c
4B	4B
8r	8r
=52	=52
4.c	4.c
4B	4d
8A	8c
=53	=53
4.G	4.d
4.F	4.c
=54	=54
4.G	4.d
4.A	4.e
=55	=55
4.c	8c
.	8B
.	8A
4d	4G
8r	8r
=56	=56
4.f	4.F
4.d	4.G
=57	=57
8e	8A
8d	8G
8c	8A
4.B	8B
.	8A
.	8B
=58	=58
4c	4c
8B	8B
4.A	4.d
=59	=59
4.G	4.d
4.r	4.r
=60	=60
4.F	4.f
4.G	4.d
=61	=61
8A	8e
8G	8d
8A	8c
8B	4.B
8A	.
8B	.
=62	=62
8c	4c
8B	.
8c	8B
4.d	4.A
=63	=63
4.d	4.G
4.r	4.r
=64	=64
4f	4c
8e	8B
4d	4d
8e	8A
=65	=65
4c	4c
8B	8d
4A	4e
8r	8r
=66	=66
4B	4f
8c	8e
4d	4d
8d	8A
=67	=67
8c	8c
8B	8B
8A	8c
4G	4d
8r	8r
=68	=68
4.F	4.f
4.G	4.d
=69	=69
4.A	4.e
4.B	4.d
=70	=70
4.A	4.c
4.G	4.B
=71	=71
4.F	4.A
4G	4G
8r	8r
=72	=72
4B	4f
8c	8e
4d	4d
8e	8c
=73	=73
4d	4B
8c	8A
4B	4B
8A	8r
=74	=74
4B	8c
.	8B
8c	8A
4d	4G
8d	8A
=75	=75
4.B	4.B
4B	4G
8r	8r
=76	=76
4B	4B
8c	8A
4d	4G
8e	8F
=77	=77
4d	4G
8c	8A
4B	4B
8G	8r
=78	=78
4A	4c
8A	8c
4B	8B
.	8A
8A	8c
=79	=79
4.G	4.d
4G	4d
8r	8r
=80	=80
4B	4e
8A	8c
4G	4d
8A	8e
=81	=81
4G	8g
.	8f
8F	8e
4G	4d
8r	8r
=82	=82
4A	4.c
8r	.
4B	4B
8A	8r
=83	=83
4.c	4.A
4d	4G
8r	8r
=84	=84
4f	4c
8e	8B
4d	4d
8e	8A
=85	=85
4c	4c
8B	8d
4A	4e
8r	8r
=86	=86
4B	4f
8c	8e
4d	4d
8d	8A
=87	=87
8c	4.c
8B	.
8A	.
4G	4.d
8B	.
=88	=88
4A	4e
8B	8c
4G	4d
8F	8r
=89	=89
4G	4g
8A	8f
8B	8e
8A	8d
8B	8e
=90	=90
4.c	4c
.	8B
4.r	4.A
=91	=91
4e	4.G
8d	.
4f	4.r
8e	.
=92	=92
4.d	4B
.	8A
4d	4G
8r	8A
=93	=93
4B	4B
8d	8G
4c	4A
8d	8r
=94	=94
4B	4B
8d	8G
4A	4A
8r	8r
=95	=95
4f	4B
8e	8c
4d	4d
8c	8d
=96	=96
4f	16c
.	16B
.	8c
8e	8d
4d	4.d
8r	.
=97	=97
4d	4r
8r	8d
4B	4.r
8d	.
=98	=98
4c	4g
8d	8g
4B	4f
8d	8f
=99	=99
4A	4e
8G	8e
4B	4d
8d	8r
=100	=100
4c	4c
8A	8d
4.B	4e
.	8f
=101	=101
4.A	8e
.	8d
.	8c
4G	8d
.	8d
8r	8e
=102	=102
[2.F	16f
.	16e
.	16d
.	16c
.	16B
.	16A
.	4G
.	8G
=103	=103
4.F]	4.A
4G;	4G;
8r	8r
==	==
*-	*-
!!!ENC: David Huron
!!!YEC: Copyright 1987, David Huron
!!!EEV: 1.0
